X:1
T:Old Maid in the Garret
M:2/4
L:1/8
K:F
 AG| FC A,B,| C2 A,B,| CC CC| D C2 F| GG GA| GF FG| AF FF| D2 C2| AA Bc|\
 B2 AG| FF GA| DCA,-B,| C2 C3/2 D/2| C2 A,B,| CD CB,| A,C A,B,| C2 D2|\
 C4| A2 Bc| B2 AB| c2 AF| C2 EF| G4| F4-| F2|
